setcps 1.4

d1
  $sometimes (off 0.125 (|*|speed 4))
  $every 2 (spin 2)
  $sometimesBy 0.25 (#legato 1.0)
  $s "bass(3,8)" #coarse (irand 5)

d2
  $sometimesBy 0.25 (off 0.125 (#n 1))
  $degradeBy "{0.0 0.55}%4"
  $n "{1 5 6 1 2 3 8 8}%4" #s "peri"

d3
  $chop "<4 8 4 3 6>"
  $randslice "<8 16 7 9>" $s "lfep:12"
  #lpf (range 500 2000 (slow 5 tri))
  #resonance 0.2 #room 0.5 #sz 0.8 #gain 0.85
  #up (slow 2 "<0 0 1 2>")

