setcps 1.4

d1
  $whenmod 32 28 ((#n 1).(density "<1 [1 1.5] 2 [3 4]>").(#sz "<0.2 0.3 0.5 0.9>"))
  $whenmod 4 2 (scramble 2)
  $n ("{0 1 2 3 4 5 6 7}%4" + 29)
  #sound "amenall2"
  #room 0.5 #speed 1.15

d2
  $midinote ("{0 ~ 7 5 10 7 0 5}%8" + 36)
  #s "uno" #sustain 0.01

d3 $stack[
  ccn "20" #ccv (range 10 50 rand),
  ccn "21" #ccv "{80 60 70 60}%4",
  ccn "44" #ccv "{1 4 6 10}%4"
  ] #s "uno"

