setcps 1.2


d1
  $stut (irand 6) 0.9 (range 0.01 0.05 rand)
  $someCyclesBy 0.35 (hurry "1 3 2 5")
  $n "{0 3 2 5 0 8}%8"
  #sound "glitch" #room 0.1 #sz 0.7
  #coarse (irand 4) #crush ((irand 8) + 4)
  #pan rand

d2
  $sound "{ifdrums 909hh}%4" #shape 0.3 #room 0.3

d3
  $jux rev
  $sound "dirty(<3 5>,8)" #n ("[0,12]" + (slow 4 "<25 32>"))
  #coarse 8 #shape 0.5 #room 0.3
