setcps 1.2



d1
  $spin 2
  $s "super808(6,8,{0 2 1}%4)"
  #n (range 1 8 (fast 12 perlin))
  #distort (range 0.0 0.7 rand)

d2
  $every 3 (spin 3)
  $chunk 3 (ply 4)
  $iter 6
  $s "{<909bd:3 909tom> <909hh*2 909oh> [909sd,909]}%6"
  #shape 0.25 #gain 1.1

d3
  $sometimes (fast 2)
  $s "elpad4*3" #legato 0.8
  #begin (range 0.0 0.5 rand)
  #up (((irand 4) * 3) + 4)
  #n (slow 8 ((run 8) * "<2 1 3>/2"))
  #room 0.25 #sz 0.8
